svgs/light/person-simple.svg

<svg xmlns="http://www.w3.org/2000/svg" viewBox="0 0 256 512"><!-- Font Awesome Pro 6.0.0-alpha2 by @fontawesome - https://fontawesome.com License - https://fontawesome.com/license (Commercial License) --><path d="M160 160H96C60.654 160 32 188.654 32 224V320C32 337.674 46.328 352 64 352L64 352V496C64 504.844 71.156 512 80 512S96 504.844 96 496V352H160V496C160 504.844 167.156 512 176 512S192 504.844 192 496V352L192 352C209.674 352 224 337.674 224 320V224C224 188.654 195.348 160 160 160ZM192 320H64V224C64 206.355 78.355 192 96 192H160C177.645 192 192 206.355 192 224V320ZM128 128C163.375 128 192 99.375 192 64S163.375 0 128 0S64 28.625 64 64S92.625 128 128 128ZM128 32C145.645 32 160 46.355 160 64S145.645 96 128 96S96 81.645 96 64S110.355 32 128 32Z"/></svg>

<svg xmlns="http://www.w3.org/2000/svg" viewBox="0 0 256 512"><!--! Font Awesome Pro 6.3.0 by @fontawesome - https://fontawesome.com License - https://fontawesome.com/license (Commercial License) Copyright 2023 Fonticons, Inc. --><path d="M160 160H96C60.65 160 32 188.7 32 224v96c0 17.67 14.33 32 32 32v144C64 504.8 71.16 512 80 512S96 504.8 96 496V352h64v144c0 8.844 7.156 16 16 16s16-7.156 16-16V352c17.67 0 32-14.33 32-32V224C224 188.7 195.3 160 160 160zM192 320H64V224c0-17.64 14.36-32 32-32h64c17.64 0 32 14.36 32 32V320zM128 128c35.38 0 64-28.62 64-64s-28.62-64-64-64S64 28.62 64 64S92.63 128 128 128zM128 32c17.64 0 32 14.36 32 32s-14.36 32-32 32S96 81.64 96 64S110.4 32 128 32z"/></svg>
